!!!OTL: 716a. An die Ungetreue.
!!!ARE: Europa, Mitteleuropa, Deutschland, Hessen ?, Odenwald ?
!!!SCT: E0716
!!!TXL: @@DE
!!!YEM: Copyright 1995, estate of Helmut Schaffrath.
**kern	**text
*ICvox	*
*M3/8	*
*k[b-e-]	*
*B-:	*
=1	=1
!LO:TX:a:t=Mäßig bewegt.	!
!LO:TX:a:t=Mſpt, um 1806 in v. Arnims Sammlung.	!
{8f	Ver-
8f	-denk
8f	mirs
=2	=2
(8b-L	nicht,
8ddJ)	.
8b-	daß
=3	=3
4cc	ich
8dd	dich
=4	=4
8ee-	mei-
8dd	-de,
8r}	.
=5	=5
{8b-	weil
8a	du
8g	ſo
=6	=6
4cc	falſch
8b-	und
=7	=7
4a	ich
8g	ſo
=8	=8
4f	treu.
8r}	.
=9	=9
{8f	Soll
8f	denn
8f	mein
=10	=10
(8b-L	Herʒ
8ddJ)	.
8b-	noch
=11	=11
4cc	Schiffbruch
8dd	.
=12	=12
8ee-	lei-
8dd	-den,
8r}	.
=13	=13
{8b-	brech
8a	ich
8g	das
=14	=14
4cc	Band
8b-	der
=15	=15
4a	Lieb
8g	ent-
=16	=16
4f	-ʒwei
8r}	.
=17	=17
{8cc	und
8cc	mach
8ff	mich
=18	=18
(8ccL	frei
8aJ)	.
8f	von
=19	=19
4f	al-
8e-	-ler
=20	=20
(8e-L	Pflicht,
8dJ)	.
8r}	.
=21	=21
{8f	ver-
8d	-denk
8f	mirs
=22	=22
8b-L	nicht,
8ddJ	.
8ff	ver-
=23	=23
8ee-L	-denk
8ccJ	.
8a	mirs
=24	=24
4b-	nicht!
8r}	.
=25	=25
{8cc	und
8cc	mach
8ff	mich
=26	=26
(8ccL	frei
8aJ)	.
8f	von
=27	=27
4f	al-
8e-	-ler
=28	=28
(8e-L	Pflicht,
8dJ)	.
8r}	.
=29	=29
{8f	ver-
8d	-denk
8f	mirs
=30	=30
8b-L	nicht,
8ddJ	.
8ff	ver-
=31	=31
8ee-L	-denk
8ccJ	.
8a	mirs
=32	=32
4b-	nicht!
8r}	.
==	==
!!!AGN: Liebes - Lied, Leid, Klage
!!!ONB: ESAC (Essen Associative Code) Database: ERK2
!!!AMT: simple triple
!!!AIN: vox
!!!EED: Helmut Schaffrath
!!!EEV: 1.0
!!!GTL: Liebeslieder [Neuere (aus dem 18. bis 19. Jahrh.) - Liebesleid] 678-740
!!!URL-scan: https://rosdok.uni-rostock.de/mcrviewer/recordIdentifier/rosdok_ppn745177662/iview2/phys_0522.iview2?x=193.8995864193107&y=842.513340359088&scale=0.7029437510502773&rotation=0&layout=singlePageLayout
!!!ENC: Anna Maria Matuszewska
!!!EEV: 2024/12/16
*-	*-
